!!!COM: Mozart
!!!OTL: 12 Variations on "Ah Vous dirais-je, Maman" for the Piano,
!!!Variation: Theme b
**kern	**harm	**kern	**kern
*M2/4	*M2/4	*Ilh	*Irh
*	*	*k[]	*k[]
*	*	*M2/4	*M2/4
*	*	*C:	*C:
*	*	*tb16	*tb16
=-	=-	=-	=-
2D	2I64	4e	4gg
.	.	4G	4gg
=	=	=	=
2D	2V7	4d	4ff
.	.	4G	4ff
=	=	=	=
2D	2I64	4c	4ee
.	.	4G	4ee
=	=	=	=
2D	2V	4B	4dd
.	.	4G	4dd
=	=	=	=
2D	2I64	4e	4gg
.	.	4G	4gg
=	=	=	=
2D	2V	4d	4ff
.	.	4G	4ff
=	=	=	=
2T	2I	4c	(4ee
.	.	(8.cL	8.eeL
.	.	16dJk	16ffJk
=	=	=	=
*	*	*^	*
4D	4C64	4c	2G	4ee
4D	4V	4B)	.	4dd)
*	*	*v	*v	*
=	=	=	=
*-	*-	*-	*-
